X: 26221
T: Medium Man
R: reel
M: 4/4
K: Gminor
|:g2fe cBce|gcfB e2ef|g2fe eegb|g2fe cBce|
g2fe cBce|gcfB e2ef|gbfb fgfe|cBB2 cdef:|
|:g2fB c2eB|c2eB c2ef|g2fB c2eB|gbfb fgfe|
g2fB c2eB|c2eB c/d/efB|gbfb fgfe|cBB2 cdef:|

